packages/dnb-ui-lib/assets/icons/wearables.svg

<svg width="16" height="16" viewBox="0 0 16 16" fill="none" xmlns="http://www.w3.org/2000/svg">
<path d="M6.51731 12.1364C6.51731 11.7221 6.18153 11.3864 5.76731 11.3864C5.3531 11.3864 5.01731 11.7221 5.01731 12.1364H6.51731ZM10.9718 12.1364C10.9718 11.7221 10.636 11.3864 10.2218 11.3864C9.80762 11.3864 9.47184 11.7221 9.47184 12.1364H10.9718ZM9.9609 1.27337L9.41838 1.79122V1.79122L9.9609 1.27337ZM9.47184 3.86364C9.47184 4.27785 9.80762 4.61364 10.2218 4.61364C10.636 4.61364 10.9718 4.27785 10.9718 3.86364H9.47184ZM5.01731 3.86364C5.01731 4.27785 5.3531 4.61364 5.76731 4.61364C6.18153 4.61364 6.51731 4.27785 6.51731 3.86364H5.01731ZM6.02825 1.27337L6.57077 1.79122L6.02825 1.27337ZM9.33093 14.25H6.65822V15.75H9.33093V14.25ZM6.65822 14.25C6.63241 14.25 6.60017 14.2396 6.57077 14.2088L5.48573 15.2445C5.79048 15.5637 6.21146 15.75 6.65822 15.75V14.25ZM6.57077 14.2088C6.54023 14.1768 6.51731 14.1263 6.51731 14.0667H5.01731C5.01731 14.5021 5.18211 14.9264 5.48573 15.2445L6.57077 14.2088ZM6.51731 14.0667V12.1364H5.01731V14.0667H6.51731ZM9.47184 12.1364V14.0667H10.9718V12.1364H9.47184ZM9.47184 14.0667C9.47184 14.1263 9.44891 14.1768 9.41838 14.2088L10.5034 15.2445C10.807 14.9264 10.9718 14.5021 10.9718 14.0667H9.47184ZM9.41838 14.2088C9.38897 14.2396 9.35674 14.25 9.33093 14.25V15.75C9.77769 15.75 10.1987 15.5637 10.5034 15.2445L9.41838 14.2088ZM6.65822 1.75H9.33093V0.25H6.65822V1.75ZM9.33093 1.75C9.35674 1.75 9.38897 1.76042 9.41838 1.79122L10.5034 0.755512C10.1987 0.436247 9.77768 0.25 9.33093 0.25V1.75ZM9.41838 1.79122C9.44891 1.82321 9.47184 1.87374 9.47184 1.93333H10.9718C10.9718 1.49785 10.807 1.07359 10.5034 0.755512L9.41838 1.79122ZM9.47184 1.93333V3.86364H10.9718V1.93333H9.47184ZM6.51731 3.86364V1.93333H5.01731V3.86364H6.51731ZM6.51731 1.93333C6.51731 1.87374 6.54023 1.82321 6.57077 1.79122L5.48573 0.755511C5.18211 1.07359 5.01731 1.49785 5.01731 1.93333H6.51731ZM6.57077 1.79122C6.60017 1.76042 6.6324 1.75 6.65822 1.75V0.25C6.21147 0.25 5.79049 0.436247 5.48573 0.755511L6.57077 1.79122ZM11.6991 8C11.6991 10.046 10.0405 11.7045 7.99459 11.7045V13.2045C10.869 13.2045 13.1991 10.8744 13.1991 8H11.6991ZM7.99459 11.7045C5.94862 11.7045 4.29004 10.046 4.29004 8H2.79004C2.79004 10.8744 5.12019 13.2045 7.99459 13.2045V11.7045ZM4.29004 8C4.29004 5.95404 5.94862 4.29545 7.99459 4.29545V2.79545C5.12019 2.79545 2.79004 5.12561 2.79004 8H4.29004ZM7.99459 4.29545C10.0405 4.29545 11.6991 5.95404 11.6991 8H13.1991C13.1991 5.12561 10.869 2.79545 7.99459 2.79545V4.29545Z" fill="black"/>
</svg>

<svg width="16" height="16" viewBox="0 0 16 16" fill="none" xmlns="http://www.w3.org/2000/svg"><path d="M6.517 12.136a.75.75 0 10-1.5 0h1.5zm4.455 0a.75.75 0 10-1.5 0h1.5zM9.96 1.273l-.543.518.543-.518zm-.49 2.59a.75.75 0 101.5 0h-1.5zm-4.454 0a.75.75 0 001.5 0h-1.5zm1.011-2.59l.543.518-.543-.518zM9.331 14.25H6.658v1.5h2.673v-1.5zm-2.673 0a.121.121 0 01-.087-.041l-1.085 1.036c.304.319.725.505 1.172.505v-1.5zm-.087-.041a.207.207 0 01-.054-.142h-1.5c0 .435.165.86.469 1.178l1.085-1.036zm-.054-.142v-1.93h-1.5v1.93h1.5zm2.955-1.93v1.93h1.5v-1.93h-1.5zm0 1.93c0 .06-.023.11-.054.142l1.085 1.036c.304-.319.469-.743.469-1.178h-1.5zm-.054.142a.121.121 0 01-.087.041v1.5a1.62 1.62 0 001.172-.505l-1.085-1.036zM6.658 1.75h2.673V.25H6.658v1.5zm2.673 0c.026 0 .058.01.087.041L10.503.756A1.62 1.62 0 009.331.25v1.5zm.087.041a.21.21 0 01.054.142h1.5c0-.435-.165-.86-.469-1.177L9.418 1.79zm.054.142v1.93h1.5v-1.93h-1.5zm-2.955 1.93v-1.93h-1.5v1.93h1.5zm0-1.93c0-.06.023-.11.054-.142L5.486.756a1.706 1.706 0 00-.469 1.177h1.5zm.054-.142a.121.121 0 01.087-.041V.25a1.62 1.62 0 00-1.172.506L6.57 1.79zM11.699 8a3.704 3.704 0 01-3.704 3.704v1.5A5.204 5.204 0 0013.199 8h-1.5zm-3.704 3.704A3.704 3.704 0 014.29 8h-1.5a5.204 5.204 0 005.205 5.204v-1.5zM4.29 8a3.705 3.705 0 013.705-3.705v-1.5A5.205 5.205 0 002.79 8h1.5zm3.705-3.705A3.705 3.705 0 0111.699 8h1.5a5.205 5.205 0 00-5.204-5.205v1.5z" fill="#000"/></svg>
